d1
  $ jux ((choose[0.125, 0.25, 0.5]) <~)
  $ sound "[bd(3, 8), cp(3, 8, 3), tabla2(5, 8, 4)]"
  # pan (rand)
  # n (irand 12)
  # up (choose [0, 4, 5, 7])
  # lpf (scale 100 12000 $ rand)
  # resonance (choose [0.1, 0.1, 0.1, 0.3])
  # delay "0.5"
  # delaytime (choose[0.0625, 0.125, 0.25, 0.5])
