do
  let
    inverse 1 = 0
    inverse 0 = 1
    pat1 = "{1 0 0 1 0 1 0 1/2 1 0 0 1/3}%8"
  d1
    $ sometimesBy 0.3 (jux (0.125 ~>))
    $ whenmod 4 3 (0.25 ~>)
    $ gain pat1 # sound "bd"
  d2
    $ sometimesBy 0.4 (jux (0.5 <~))
    $ whenmod 3 2 (0.25 <~)
    $ gain (inverse <$> pat1) # sound "cp"
