d1
  $ sometimesBy 0.8 (jux (iter 8))
  $ sometimes (jux ((3/8) ~>))
  $ stack [
    sound "SawSynth(5, 8, 3)"
    # n "[c5, e5, g5, <a5 b5>]"
    |+| n "<0 -5 -12 12>/2"
    # sustain "[0.5 0.03 0.05 0.1]*2"
  ]
  # delay "0.75" # delaytime (5/8)
